apps/web/src/images/integrations/logo-elastic-badge-color.svg

<svg width="600" height="600" viewBox="0 0 600 600" fill="none" xmlns="http://www.w3.org/2000/svg">
<path d="M600 313.996C600 263.976 568.808 220.018 521.893 203.093C523.922 192.482 524.937 181.871 524.937 171.009C524.937 77.7888 448.859 2 355.538 2C300.761 2 250.042 28.0208 218.089 71.9783C202.366 59.852 183.095 53.2838 163.061 53.2838C113.356 53.2838 73.0347 93.4517 73.0347 142.967C73.0347 153.83 75.0634 164.441 78.6137 174.293C31.9527 190.967 0 235.682 0 285.449C0 335.722 31.4455 379.68 78.3601 396.607C76.3315 406.965 75.317 417.827 75.317 428.689C75.317 521.658 151.142 597.193 244.464 597.193C299.24 597.193 349.958 570.921 381.657 526.962C397.38 539.341 416.653 546.162 436.687 546.162C486.39 546.162 526.712 505.995 526.712 456.479C526.712 445.616 524.683 435.006 521.133 425.152C567.794 408.48 600 363.765 600 313.996Z" fill="white"/>
<path d="M237.006 258.654L367.34 318.469L498.682 202.389C500.694 192.757 501.449 183.38 501.449 173.241C501.449 91.6308 435.527 25.2271 354.508 25.2271C305.948 25.2271 260.909 49.3048 233.483 89.6033L211.594 203.909L237.006 258.654Z" fill="#FED10A"/>
<path d="M98.4381 397.96C96.4121 407.645 95.6523 417.583 95.6523 427.777C95.6523 510.097 162.257 576.87 244.055 576.87C293.185 576.87 339.023 552.403 366.628 511.626L388.406 397.196L359.283 341.126L227.594 280.725L98.4381 397.96Z" fill="#24BBB1"/>
<path d="M100.032 171.886L191.498 193.623L211.594 89.3351C199.227 79.7602 183.769 74.5845 167.794 74.5845C128.116 74.5845 95.6523 106.932 95.6523 147.043C95.6523 155.582 97.1982 164.123 100.032 171.886Z" fill="#EF5098"/>
<path d="M88.9032 193.623C48.602 206.732 20.2891 245.056 20.2891 287.161C20.2891 328.257 46.0512 364.816 84.567 379.439L211.593 265.983L188.381 216.819L88.9032 193.623Z" fill="#1BA9F5"/>
<path d="M391.297 509.966C403.634 519.307 418.488 524.609 433.846 524.609C472.618 524.609 504.34 493.05 504.34 453.919C504.34 445.335 502.83 437.002 500.06 429.429L410.936 408.474L391.297 509.966Z" fill="#93C83E"/>
<path d="M408.86 385.531L508.255 408.474C548.779 395.363 576.812 357.04 576.812 314.683C576.812 273.839 551.072 237.028 512.588 222.657L382.609 335.357L408.86 385.531Z" fill="#0077CC"/>
</svg>

<svg width="600" height="600" fill="none" xmlns="http://www.w3.org/2000/svg"><path d="M600 313.996c0-50.02-31.192-93.978-78.107-110.903a169.795 169.795 0 0 0 3.044-32.084C524.937 77.789 448.859 2 355.538 2c-54.777 0-105.496 26.02-137.449 69.978-15.723-12.126-34.994-18.694-55.028-18.694-49.705 0-90.026 40.168-90.026 89.683 0 10.863 2.028 21.474 5.579 31.326C31.953 190.967 0 235.682 0 285.449c0 50.273 31.445 94.231 78.36 111.158-2.028 10.358-3.043 21.22-3.043 32.082 0 92.969 75.825 168.504 169.147 168.504 54.776 0 105.494-26.272 137.193-70.231 15.723 12.379 34.996 19.2 55.03 19.2 49.703 0 90.025-40.167 90.025-89.683 0-10.863-2.029-21.473-5.579-31.327C567.794 408.48 600 363.765 600 313.996Z" fill="#fff"/><path d="m237.006 258.654 130.334 59.815 131.342-116.08c2.012-9.632 2.767-19.009 2.767-29.148 0-81.61-65.922-148.014-146.941-148.014-48.56 0-93.599 24.078-121.025 64.376L211.594 203.91l25.412 54.745Z" fill="#FED10A"/><path d="M98.438 397.96c-2.026 9.685-2.786 19.623-2.786 29.817 0 82.32 66.605 149.093 148.403 149.093 49.13 0 94.968-24.467 122.573-65.244l21.778-114.43-29.123-56.07-131.689-60.401L98.438 397.96Z" fill="#24BBB1"/><path d="m100.032 171.886 91.466 21.737 20.096-104.288c-12.367-9.575-27.825-14.75-43.8-14.75-39.678 0-72.142 32.347-72.142 72.458 0 8.539 1.546 17.08 4.38 24.843Z" fill="#EF5098"/><path d="M88.903 193.623c-40.301 13.109-68.614 51.433-68.614 93.538 0 41.096 25.762 77.655 64.278 92.278l127.026-113.456-23.212-49.164-99.478-23.196Z" fill="#1BA9F5"/><path d="M391.297 509.966c12.337 9.341 27.191 14.643 42.549 14.643 38.772 0 70.494-31.559 70.494-70.69 0-8.584-1.51-16.917-4.28-24.49l-89.124-20.955-19.639 101.492Z" fill="#93C83E"/><path d="m408.86 385.531 99.395 22.943c40.524-13.111 68.557-51.434 68.557-93.791 0-40.844-25.74-77.655-64.224-92.026l-129.979 112.7 26.251 50.174Z" fill="#07C"/></svg>
